images/cc-by-nc.svg

<?xml version="1.0" encoding="UTF-8" standalone="no"?>
<!-- Created with Inkscape (http://www.inkscape.org/) -->
<svg
   xmlns:dc="http://purl.org/dc/elements/1.1/"
   xmlns:cc="http://web.resource.org/cc/"
   xmlns:rdf="http://www.w3.org/1999/02/22-rdf-syntax-ns#"
   xmlns:svg="http://www.w3.org/2000/svg"
   xmlns="http://www.w3.org/2000/svg"
   xmlns:sodipodi="http://sodipodi.sourceforge.net/DTD/sodipodi-0.dtd"
   xmlns:inkscape="http://www.inkscape.org/namespaces/inkscape"
   width="80"
   height="15"
   id="svg2279"
   sodipodi:version="0.32"
   inkscape:version="0.45+devel"
   version="1.0"
   sodipodi:docname="by-nc.svg"
   inkscape:output_extension="org.inkscape.output.svg.inkscape">
  <defs
     id="defs2281">
    <clipPath
       clipPathUnits="userSpaceOnUse"
       id="clipPath3442">
      <rect
         style="fill:#000000;fill-opacity:1;stroke:none;stroke-width:0.92243534;stroke-miterlimit:4;stroke-dasharray:none;stroke-opacity:1"
         id="rect3444"
         width="20.614058"
         height="12.483703"
         x="171.99832"
         y="239.1203" />
    </clipPath>
  </defs>
  <sodipodi:namedview
     id="base"
     pagecolor="#ffffff"
     bordercolor="#999999"
     borderopacity="1"
     gridtolerance="10000"
     guidetolerance="10"
     objecttolerance="10"
     inkscape:pageopacity="0.0"
     inkscape:pageshadow="2"
     inkscape:zoom="10.5125"
     inkscape:cx="40"
     inkscape:cy="7.5"
     inkscape:document-units="px"
     inkscape:current-layer="layer1"
     width="80px"
     height="15px"
     showborder="true"
     inkscape:showpageshadow="false"
     inkscape:window-width="935"
     inkscape:window-height="624"
     inkscape:window-x="50"
     inkscape:window-y="160" />
  <metadata
     id="metadata2284">
    <rdf:RDF>
      <cc:Work
         rdf:about="">
        <dc:format>image/svg+xml</dc:format>
        <dc:type
           rdf:resource="http://purl.org/dc/dcmitype/StillImage" />
      </cc:Work>
    </rdf:RDF>
  </metadata>
  <g
     inkscape:label="Layer 1"
     inkscape:groupmode="layer"
     id="layer1">
    <g
       id="BY-NC"
       transform="matrix(0.9875019,0,0,0.9333518,-323.90064,-302.67749)">
      <g
         id="g3711"
         transform="translate(158,87)">
        <rect
           style="fill:#ffffff;fill-opacity:1;stroke:#000000;stroke-width:1.04161763;stroke-miterlimit:4;stroke-dasharray:none;stroke-opacity:1"
           id="rect3713"
           width="80"
           height="15"
           x="170.5"
           y="237.86218" />
        <rect
           y="239.36218"
           x="172"
           height="12"
           width="77"
           id="rect3715"
           style="fill:#000000;fill-opacity:1;stroke:none;stroke-width:0.92243534;stroke-miterlimit:4;stroke-dasharray:none;stroke-opacity:1" />
        <path
           style="fill:#abb1aa;fill-opacity:1;stroke:none;stroke-width:1;stroke-miterlimit:4;stroke-dasharray:none;stroke-opacity:0.46913578"
           d="M 171.99996,239.37505 L 171.99996,251.37505 L 192.33474,251.37505 C 193.64339,249.62474 194.52652,247.59057 194.52652,245.37505 C 194.52652,243.17431 193.65859,241.1179 192.36599,239.37505 L 171.99996,239.37505 z"
           id="path3717"
           sodipodi:nodetypes="cccscc" />
        <g
           id="g3719"
           transform="matrix(0.9612533,0,0,0.9612533,6.8341566,9.5069994)"
           clip-path="url(#clipPath3442)">
          <path
             id="path3721"
             cx="296.35416"
             ry="22.939548"
             cy="264.3577"
             type="arc"
             rx="22.939548"
             d="M 190.06417,245.36206 C 190.06667,249.25405 186.91326,252.41072 183.02153,252.41323 C 179.12979,252.41572 175.97262,249.26256 175.97036,245.3706 C 175.97036,245.36783 175.97036,245.36507 175.97036,245.36206 C 175.9681,241.47007 179.12126,238.3134 183.013,238.31113 C 186.90524,238.30864 190.06191,241.46181 190.06417,245.3538 C 190.06417,245.35628 190.06417,245.35929 190.06417,245.36206 z"
             style="opacity:1;fill:#ffffff" />
          <path
             d="M 188.74576,239.62226 C 190.30843,241.18492 191.08988,243.09869 191.08988,245.36206 C 191.08988,247.62592 190.32197,249.51913 188.78615,251.04165 C 187.15627,252.64521 185.22995,253.44672 183.00722,253.44672 C 180.81132,253.44672 178.91837,252.65172 177.32887,251.06174 C 175.73912,249.47198 174.94436,247.57226 174.94436,245.36206 C 174.94436,243.15235 175.73912,241.23908 177.32887,239.62226 C 178.87799,238.0591 180.77094,237.27764 183.00722,237.27764 C 185.2706,237.27764 187.18312,238.05909 188.74576,239.62226 z M 178.38093,240.67355 C 177.05978,242.008 176.39945,243.57116 176.39945,245.36429 C 176.39945,247.15694 177.05326,248.70682 178.36062,250.01393 C 179.66822,251.32153 181.22487,251.97509 183.03105,251.97509 C 184.83724,251.97509 186.40716,251.31502 187.74161,249.99412 C 189.0086,248.76725 189.64234,247.22467 189.64234,245.36429 C 189.64234,243.51799 188.99831,241.95084 187.71101,240.66354 C 186.42396,239.37649 184.86406,238.7327 183.03105,238.7327 C 181.19804,238.73271 179.64767,239.37975 178.38093,240.67355 z M 181.85761,244.57559 C 181.65573,244.13545 181.35354,243.91525 180.95051,243.91525 C 180.23802,243.91525 179.8819,244.39501 179.8819,245.35404 C 179.8819,246.31328 180.23802,246.79255 180.95051,246.79255 C 181.421,246.79255 181.75705,246.55908 181.95869,246.09111 L 182.94629,246.61701 C 182.47555,247.45339 181.76934,247.87168 180.82763,247.87168 C 180.10136,247.87168 179.51953,247.64899 179.08265,247.20409 C 178.64502,246.7587 178.42684,246.14477 178.42684,245.36206 C 178.42684,244.59313 178.65204,243.98271 179.10271,243.53056 C 179.55338,243.07838 180.11463,242.8524 180.7875,242.8524 C 181.78288,242.8524 182.49561,243.24465 182.92647,244.02835 L 181.85761,244.57559 z M 186.50398,244.57559 C 186.30184,244.13545 186.00567,243.91525 185.61517,243.91525 C 184.88839,243.91525 184.52474,244.39501 184.52474,245.35404 C 184.52474,246.31328 184.88839,246.79255 185.61517,246.79255 C 186.08642,246.79255 186.41644,246.55908 186.6048,246.09111 L 187.61447,246.61701 C 187.14448,247.45339 186.43926,247.87168 185.49931,247.87168 C 184.77403,247.87168 184.19346,247.64899 183.75683,247.20409 C 183.32096,246.7587 183.10254,246.14477 183.10254,245.36206 C 183.10254,244.59313 183.32422,243.98271 183.76737,243.53056 C 184.21026,243.07838 184.77404,242.8524 185.4592,242.8524 C 186.45282,242.8524 187.16455,243.24465 187.5939,244.02835 L 186.50398,244.57559 z"
             id="path3723"
             style="opacity:1" />
        </g>
      </g>
      <path
         id="text3725"
         d="M 357.4197,331.68502 C 357.66518,331.68502 357.85131,331.63144 357.9781,331.52427 C 358.10488,331.4171 358.16827,331.25904 358.16828,331.05005 C 358.16827,330.84377 358.10488,330.68703 357.9781,330.57986 C 357.85131,330.47002 357.66518,330.41509 357.4197,330.41509 L 356.55784,330.41509 L 356.55784,331.68502 L 357.4197,331.68502 M 357.4723,334.30926 C 357.78522,334.30926 358.0199,334.24363 358.17637,334.11235 C 358.33552,333.98107 358.4151,333.7828 358.4151,333.51757 C 358.4151,333.25769 358.33686,333.06346 358.18041,332.93485 C 358.02396,332.80358 357.78792,332.73793 357.4723,332.73793 L 356.55784,332.73793 L 356.55784,334.30926 L 357.4723,334.30926 M 358.92089,332.15119 C 359.25538,332.24765 359.51434,332.42581 359.69779,332.68569 C 359.88121,332.94557 359.97293,333.26439 359.97294,333.64215 C 359.97293,334.22085 359.776,334.6522 359.38217,334.93619 C 358.98833,335.22018 358.38947,335.36218 357.5856,335.36218 L 355.00001,335.36218 L 355.00001,329.36218 L 357.33878,329.36218 C 358.17771,329.36218 358.78466,329.48811 359.15962,329.73994 C 359.53727,329.99178 359.7261,330.395 359.7261,330.94958 C 359.7261,331.24162 359.65732,331.49078 359.51975,331.69708 C 359.38217,331.9007 359.18255,332.05207 358.92089,332.15119 M 359.83746,329.36218 L 361.54096,329.36218 L 362.91671,331.50015 L 364.29245,329.36218 L 366,329.36218 L 363.69764,332.83438 L 363.69764,335.36218 L 362.13982,335.36218 L 362.13982,332.83438 L 359.83746,329.36218 M 365.15837,332.40839 L 367.69946,332.40839 L 367.69946,333.57785 L 365.15837,333.57785 L 365.15837,332.40839 M 368.9174,329.36218 L 370.65732,329.36218 L 372.85447,333.47738 L 372.85447,329.36218 L 374.33138,329.36218 L 374.33138,335.36218 L 372.59146,335.36218 L 370.3943,331.24698 L 370.3943,335.36218 L 368.9174,335.36218 L 368.9174,329.36218 M 380.65173,335.03264 C 380.36579,335.17999 380.0677,335.29118 379.75749,335.36619 C 379.44727,335.44122 379.12357,335.47872 378.78638,335.47872 C 377.78019,335.47872 376.98307,335.20009 376.395,334.64282 C 375.80693,334.08288 375.5129,333.32467 375.5129,332.36821 C 375.5129,331.40907 375.80693,330.65087 376.395,330.0936 C 376.98307,329.53365 377.78019,329.25368 378.78638,329.25367 C 379.12357,329.25368 379.44727,329.29118 379.75749,329.3662 C 380.0677,329.44122 380.36579,329.55241 380.65173,329.69975 L 380.65173,330.94155 C 380.36309,330.74597 380.0785,330.60263 379.79796,330.51154 C 379.5174,330.42046 379.22203,330.37491 378.91181,330.3749 C 378.35611,330.37491 377.91911,330.55174 377.6008,330.90538 C 377.28249,331.25904 377.12333,331.74665 377.12333,332.36821 C 377.12333,332.9871 377.28249,333.47336 377.6008,333.82701 C 377.91911,334.18066 378.35611,334.35749 378.91181,334.35749 C 379.22203,334.35749 379.5174,334.31194 379.79796,334.22085 C 380.0785,334.12976 380.36309,333.98643 380.65173,333.79085 L 380.65173,335.03264"
         style="font-size:8.25858784px;font-style:normal;font-weight:bold;fill:#ffffff;fill-opacity:1;stroke:none;stroke-width:1px;stroke-linecap:butt;stroke-linejoin:miter;stroke-opacity:1;font-family:'Bitstream Vera Sans'" />
    </g>
  </g>
</svg>

<svg xmlns="http://www.w3.org/2000/svg" width="80" height="15" id="svg2279" version="1.0"><defs id="defs2281"><clipPath clipPathUnits="userSpaceOnUse" id="clipPath3442"><path id="rect3444" fill="#000" fill-opacity="1" stroke="none" stroke-width=".922" stroke-miterlimit="4" stroke-dasharray="none" stroke-opacity="1" d="M171.998 239.12h20.614v12.484h-20.614z"/></clipPath></defs><g id="layer1"><g id="BY-NC" transform="matrix(.9875 0 0 .93335 -323.9 -302.677)"><g id="g3711" transform="translate(158 87)"><path id="rect3713" fill="#fff" fill-opacity="1" stroke="#000" stroke-width="1.042" stroke-miterlimit="4" stroke-dasharray="none" stroke-opacity="1" d="M170.5 237.862h80v15h-80z"/><path id="rect3715" fill="#000" fill-opacity="1" stroke="none" stroke-width=".922" stroke-miterlimit="4" stroke-dasharray="none" stroke-opacity="1" d="M172 239.362h77v12h-77z"/><path d="M172 239.375v12h20.335c1.308-1.75 2.192-3.784 2.192-6 0-2.2-.868-4.257-2.161-6H172z" id="path3717" fill="#abb1aa" fill-opacity="1" stroke="none" stroke-width="1" stroke-miterlimit="4" stroke-dasharray="none" stroke-opacity=".469"/><g id="g3719" transform="translate(6.834 9.507) scale(.96125)" clip-path="url(#clipPath3442)"><path id="path3721" d="M190.064 245.362a7.047 7.047 0 01-14.094.009v-.009a7.047 7.047 0 1114.094-.008v.008z" opacity="1" fill="#fff"/><path d="M188.746 239.622c1.562 1.563 2.344 3.477 2.344 5.74 0 2.264-.768 4.157-2.304 5.68-1.63 1.603-3.556 2.405-5.779 2.405-2.196 0-4.089-.795-5.678-2.385-1.59-1.59-2.385-3.49-2.385-5.7s.795-4.123 2.385-5.74c1.549-1.563 3.442-2.344 5.678-2.344 2.264 0 4.176.781 5.739 2.344zm-10.365 1.052c-1.321 1.334-1.982 2.897-1.982 4.69 0 1.793.654 3.343 1.962 4.65 1.307 1.308 2.864 1.961 4.67 1.961s3.376-.66 4.71-1.98c1.268-1.228 1.901-2.77 1.901-4.63 0-1.847-.644-3.414-1.931-4.701-1.287-1.288-2.847-1.931-4.68-1.931-1.833 0-3.383.647-4.65 1.94zm3.477 3.902c-.202-.44-.504-.66-.907-.66-.713 0-1.07.479-1.07 1.438 0 .96.357 1.439 1.07 1.439.47 0 .806-.234 1.008-.702l.987.526c-.47.836-1.177 1.255-2.118 1.255-.727 0-1.308-.223-1.745-.668-.438-.445-.656-1.06-.656-1.842 0-.769.225-1.38.676-1.831.45-.453 1.012-.679 1.684-.679.996 0 1.709.393 2.14 1.176l-1.07.548zm4.646 0c-.202-.44-.498-.66-.889-.66-.727 0-1.09.479-1.09 1.438 0 .96.363 1.439 1.09 1.439.471 0 .801-.234.99-.702l1.01.526c-.47.836-1.176 1.255-2.116 1.255-.725 0-1.306-.223-1.742-.668-.436-.445-.654-1.06-.654-1.842 0-.769.221-1.38.664-1.831.443-.453 1.007-.679 1.692-.679.994 0 1.706.393 2.135 1.176l-1.09.548z" id="path3723" opacity="1"/></g></g><path id="text3725" d="M357.42 331.685c.245 0 .431-.054.558-.16.127-.108.19-.266.19-.475 0-.206-.063-.363-.19-.47-.127-.11-.313-.165-.558-.165h-.862v1.27h.862m.052 2.624c.313 0 .548-.065.704-.197.16-.13.24-.33.24-.594 0-.26-.08-.455-.236-.583-.156-.131-.392-.197-.708-.197h-.914v1.571h.914m1.449-2.158c.334.097.593.275.777.535.183.26.275.578.275.956 0 .579-.197 1.01-.59 1.294-.395.284-.994.426-1.797.426H355v-6h2.339c.839 0 1.446.126 1.82.378.378.252.567.655.567 1.21 0 .292-.069.54-.206.747a1.218 1.218 0 01-.6.454m.917-2.789h1.704l1.376 2.138 1.375-2.138H366l-2.302 3.472v2.528h-1.558v-2.528l-2.303-3.472m5.321 3.046h2.541v1.17h-2.54v-1.17m3.758-3.046h1.74l2.197 4.115v-4.115h1.477v6h-1.74l-2.197-4.115v4.115h-1.477v-6m11.735 5.67a3.996 3.996 0 01-1.866.447c-1.006 0-1.803-.279-2.391-.836-.588-.56-.882-1.318-.882-2.275 0-.959.294-1.717.882-2.274.588-.56 1.385-.84 2.391-.84a3.997 3.997 0 011.865.446v1.242a3.407 3.407 0 00-.853-.43 2.852 2.852 0 00-.886-.137c-.556 0-.993.177-1.311.53-.319.354-.478.842-.478 1.463 0 .62.16 1.105.478 1.459.318.354.755.53 1.31.53.311 0 .606-.045.887-.136a3.44 3.44 0 00.854-.43v1.242" font-size="8.259" font-style="normal" font-weight="700" fill="#fff" fill-opacity="1" stroke="none" stroke-width="1" stroke-linecap="butt" stroke-linejoin="miter" stroke-opacity="1" font-family="Bitstream Vera Sans"/></g></g></svg>
